X: 305619
M: 2/4	% Actually, there's no time signature in this tune.
L: 1/16
K: D
dcdA Bcdf | gfed cBAG | FAdf gfed | c2A2 A2Bc |\
dAeA fAgA | gfed dcBA | dfeg faeg | f2d2d2 :|
|: ef |\
agfe defa | b2e2e2 ed | cAeA fA[ge]A | c2A2 A2Bc |\
dAeA fAgA | afdA dcBA | dfeg faeg | f2d2d2 :|


